src/sync.svg

<svg viewBox="0 0 16 16" fill="none" xmlns="http://www.w3.org/2000/svg"><path fill-rule="evenodd" clip-rule="evenodd" d="M14 7.99999C13.9977 9.31883 13.5609 10.6002 12.7571 11.6458C11.9534 12.6915 10.8276 13.4432 9.55372 13.7847C8.27986 14.1262 6.92896 14.0385 5.70996 13.5352C4.67532 13.1079 3.78463 12.4014 3.13425 11.5H5.5V10.5H2.5H1.5V11.5V14.5H2.5V12.3205C3.15028 13.1465 3.98257 13.8208 4.93999 14.2862C6.36787 14.9802 7.98925 15.1682 9.53806 14.8194C11.0869 14.4705 12.4711 13.6056 13.4636 12.3664C14.456 11.1273 14.9978 9.58759 15 7.99999H14ZM8 1.99999C9.05218 2.00107 10.0856 2.27882 10.9965 2.80537C11.7351 3.23233 12.3722 3.8107 12.8673 4.5H10.5V5.5H13.5H14.5V4.5V1.5H13.5V3.67943C12.8497 2.85348 12.0174 2.17917 11.06 1.71382C9.63213 1.01981 8.01075 0.831791 6.46194 1.18062C4.91314 1.52945 3.52891 2.39441 2.53643 3.63354C1.54395 4.87268 1.00217 6.41239 1 7.99999H2C2 6.40869 2.63214 4.88257 3.75736 3.75735C4.88258 2.63213 6.4087 1.99999 8 1.99999Z" fill="#111111"/></svg>

<svg viewBox="0 0 16 16" fill="none" xmlns="http://www.w3.org/2000/svg"><path fill-rule="evenodd" clip-rule="evenodd" d="M14 8a6 6 0 0 1-10.866 3.5H5.5v-1h-4v4h1v-2.18A7 7 0 0 0 15 8h-1ZM8 2a6 6 0 0 1 4.867 2.5H10.5v1h4v-4h-1v2.18A7 7 0 0 0 1 8h1a6 6 0 0 1 6-6Z" fill="#111111"/></svg>
